third_party/noto/noto_2/emoji_u1f5c3.svg

<svg enable-background="new 0 0 128 128" viewBox="0 0 128 128" xmlns="http://www.w3.org/2000/svg"><rect x="26.33" y="16.42" width="74.57" height="12.31" fill="#424242"/><polygon points="20.09 50.7 28.04 25.52 28.04 16.42 21.24 16.42 5.47 50.7" fill="#424242"/><polygon points="122.46 50.7 106.68 16.42 99.89 16.42 99.89 25.52 107.84 50.7" fill="#424242"/><path d="m92.59 61.09h-57.11c-2.21 0-4-1.79-4-4v-45.92c0-2.21 1.79-4 4-4h57.11c2.21 0 4 1.79 4 4v45.92c0 2.21-1.79 4-4 4z" fill="#F9A825"/><path d="m99.37 70.55h-71.07c-2.21 0-4-1.79-4-4v-44.6c0-2.21 1.79-4 4-4h71.07c2.21 0 4 1.79 4 4v44.6c0 2.21-1.8 4-4 4z" fill="#FDD835"/><linearGradient id="c" x1="63.831" x2="63.831" y1="28.499" y2="86.604" gradientUnits="userSpaceOnUse"><stop stop-color="#FFF59D" offset=".0080231"/><stop stop-color="#FFF297" offset=".1653"/><stop stop-color="#FEEB87" offset=".3707"/><stop stop-color="#FDDE6C" offset=".6028"/><stop stop-color="#FCCC47" offset=".8526"/><stop stop-color="#FBC02D" offset="1"/></linearGradient><path d="m106.55 86.71h-85.44c-2.21 0-4-1.79-4-4v-49.98c0-2.21 1.79-4 4-4h85.45c2.21 0 4 1.79 4 4v49.97c-0.01 2.22-1.8 4.01-4.01 4.01z" fill="url(#c)"/><path d="m75.99 14.81h-17.28c-1.66 0-3-1.34-3-3v-4.36c0-1.66 1.34-3 3-3h17.27c1.66 0 3 1.34 3 3v4.36c0.01 1.65-1.34 3-2.99 3z" fill="#4480F7"/><path d="m43.47 26.59c-2.48 0-4.5-2.02-4.5-4.5v-4.36c0-2.48 2.02-4.5 4.5-4.5h17.36c2.48 0 4.5 2.02 4.5 4.5v4.36c0 2.48-2.02 4.5-4.5 4.5h-17.36z" fill="#2CA94F"/><path d="m60.83 14.73c1.66 0 3 1.34 3 3v4.36c0 1.66-1.34 3-3 3h-17.36c-1.66 0-3-1.34-3-3v-4.36c0-1.66 1.34-3 3-3h17.36m0-3h-17.36c-3.31 0-6 2.69-6 6v4.36c0 3.31 2.69 6 6 6h17.36c3.31 0 6-2.69 6-6v-4.36c0-3.31-2.69-6-6-6z" fill="#FDD835"/><path d="m29.33 36.95c-2.21 0-4-1.79-4-4v-4.36c0-2.21 1.79-4 4-4h18.18c2.21 0 4 1.79 4 4v4.36c0 2.21-1.79 4-4 4h-18.18z" fill="#EC4431"/><path d="m47.5 25.59c1.66 0 3 1.34 3 3v4.36c0 1.66-1.34 3-3 3h-18.17c-1.66 0-3-1.34-3-3v-4.36c0-1.66 1.34-3 3-3h18.17m0-2h-18.17c-2.76 0-5 2.24-5 5v4.36c0 2.76 2.24 5 5 5h18.17c2.76 0 5-2.24 5-5v-4.36c0-2.76-2.24-5-5-5z" fill="#FFF59D"/><polyline points="108.86 50.59 102.96 50.59 85.73 50.59 42.2 50.59 20.09 50.59 19.07 50.59"/><linearGradient id="b" x1="63.963" x2="63.963" y1="51.59" y2="122.95" gradientUnits="userSpaceOnUse"><stop stop-color="#757575" offset=".0077553"/><stop stop-color="#424242" offset="1"/></linearGradient><polyline points="5.47 50.7 12.27 123.97 115.66 123.97 122.46 50.7" fill="url(#b)"/><g opacity=".2"><path d="m75.88 7.73c0.11 0 0.16 0.09 0.17 0.16 0.22 1.47 1.48 2.56 2.97 2.56h13.4c0.69 0 1.25 0.56 1.25 1.25v5.01c0 1.66 1.34 3 3 3h8.17l14.64 31.8-6.48 69.75h-97.93l-6.47-69.76 14.64-31.8h8.32c1.66 0 3-1.34 3-3v-5c0-0.69 0.56-1.25 1.25-1.25h20.03c1.49 0 2.75-1.09 2.97-2.56 0.01-0.06 0.06-0.16 0.17-0.16h16.9m0-3h-16.9c-1.6 0-2.91 1.18-3.14 2.72h-20.03c-2.35 0-4.25 1.9-4.25 4.25v5.01h-10.25l-15.77 34.27 6.8 73.28h103.39l6.8-73.28-15.77-34.28h-10.09v-5c0-2.35-1.9-4.25-4.25-4.25h-13.4c-0.23-1.54-1.54-2.72-3.14-2.72z" fill="#eee"/></g><linearGradient id="a" x1="63.831" x2="63.831" y1="69.465" y2="90.043" gradientUnits="userSpaceOnUse"><stop stop-color="#FAFAFA" offset="0"/><stop stop-color="#EFEFEF" offset=".2634"/><stop stop-color="#D2D2D2" offset=".7258"/><stop stop-color="#BDBDBD" offset="1"/></linearGradient><polygon points="87.18 90.9 40.48 90.9 39.42 69.15 88.24 69.15" fill="url(#a)" stroke="#BDBDBD" stroke-miterlimit="10" stroke-width="3"/></svg>

<svg width="128" height="128" style="enable-background:new 0 0 128 128;" xmlns="http://www.w3.org/2000/svg" xmlns:xlink="http://www.w3.org/1999/xlink">
  <g id="图层_1">
    <g>
      <rect height="12.31" style="fill:#424242;" width="74.57" x="26.33" y="16.42"/>
      <polygon points="20.09,50.7 28.04,25.52 28.04,16.42 21.24,16.42 5.47,50.7 " style="fill:#424242;"/>
      <polygon points="122.46,50.7 106.68,16.42 99.89,16.42 99.89,25.52 107.84,50.7 " style="fill:#424242;"/>
      <g>
        <path d="M92.59,61.09H35.48c-2.21,0-4-1.79-4-4V11.17c0-2.21,1.79-4,4-4h57.11c2.21,0,4,1.79,4,4v45.92 C96.59,59.3,94.8,61.09,92.59,61.09z" style="fill:#F9A825;"/>
        <path d="M99.37,70.55H28.3c-2.21,0-4-1.79-4-4v-44.6c0-2.21,1.79-4,4-4h71.07c2.21,0,4,1.79,4,4v44.6 C103.37,68.76,101.57,70.55,99.37,70.55z" style="fill:#FDD835;"/>
        <linearGradient id="SVGID_1_" gradientUnits="userSpaceOnUse" x1="63.8307" x2="63.8307" y1="28.4987" y2="86.6043">
          <stop offset="8.023131e-03" style="stop-color:#FFF59D"/>
          <stop offset="0.1653" style="stop-color:#FFF297"/>
          <stop offset="0.3707" style="stop-color:#FEEB87"/>
          <stop offset="0.6028" style="stop-color:#FDDE6C"/>
          <stop offset="0.8526" style="stop-color:#FCCC47"/>
          <stop offset="1" style="stop-color:#FBC02D"/>
        </linearGradient>
        <path d="M106.55,86.71H21.11c-2.21,0-4-1.79-4-4V32.73c0-2.21,1.79-4,4-4h85.45c2.21,0,4,1.79,4,4 v49.97C110.55,84.92,108.76,86.71,106.55,86.71z" style="fill:url(#SVGID_1_);"/>
        <path d="M75.99,14.81H58.71c-1.66,0-3-1.34-3-3V7.45c0-1.66,1.34-3,3-3h17.27c1.66,0,3,1.34,3,3v4.36 C78.99,13.46,77.64,14.81,75.99,14.81z" style="fill:#4480F7;"/>
        <g>
          <path d="M43.47,26.59c-2.48,0-4.5-2.02-4.5-4.5v-4.36c0-2.48,2.02-4.5,4.5-4.5h17.36 c2.48,0,4.5,2.02,4.5,4.5v4.36c0,2.48-2.02,4.5-4.5,4.5H43.47z" style="fill:#2CA94F;"/>
          <path d="M60.83,14.73c1.66,0,3,1.34,3,3v4.36c0,1.66-1.34,3-3,3H43.47c-1.66,0-3-1.34-3-3v-4.36 c0-1.66,1.34-3,3-3H60.83 M60.83,11.73H43.47c-3.31,0-6,2.69-6,6v4.36c0,3.31,2.69,6,6,6h17.36c3.31,0,6-2.69,6-6v-4.36 C66.83,14.42,64.14,11.73,60.83,11.73L60.83,11.73z" style="fill:#FDD835;"/>
        </g>
        <g>
          <path d="M29.33,36.95c-2.21,0-4-1.79-4-4v-4.36c0-2.21,1.79-4,4-4h18.18c2.21,0,4,1.79,4,4v4.36 c0,2.21-1.79,4-4,4H29.33z" style="fill:#EC4431;"/>
          <path d="M47.5,25.59c1.66,0,3,1.34,3,3v4.36c0,1.66-1.34,3-3,3H29.33c-1.66,0-3-1.34-3-3v-4.36 c0-1.66,1.34-3,3-3H47.5 M47.5,23.59H29.33c-2.76,0-5,2.24-5,5v4.36c0,2.76,2.24,5,5,5H47.5c2.76,0,5-2.24,5-5v-4.36 C52.5,25.83,50.26,23.59,47.5,23.59L47.5,23.59z" style="fill:#FFF59D;"/>
        </g>
      </g>
      <polyline points="108.86,50.59 102.96,50.59 85.73,50.59 42.2,50.59 20.09,50.59 19.07,50.59 "/>
      <linearGradient id="SVGID_3_" gradientUnits="userSpaceOnUse" x1="63.9631" x2="63.9631" y1="51.5897" y2="122.9466">
        <stop offset="7.755335e-03" style="stop-color:#757575"/>
        <stop offset="1" style="stop-color:#424242"/>
      </linearGradient>
      <polyline points="5.47,50.7 12.27,123.97 115.66,123.97 122.46,50.7 " style="fill:url(#SVGID_3_);"/>
      <g style="opacity:0.2;">
        <path d="M75.88,7.73c0.11,0,0.16,0.09,0.17,0.16c0.22,1.47,1.48,2.56,2.97,2.56h13.4 c0.69,0,1.25,0.56,1.25,1.25v5.01c0,1.66,1.34,3,3,3h3.3h1.01h3.86l14.64,31.8L113,121.26H15.07L8.6,51.5l14.64-31.8h3.16h1.71 h3.45c1.66,0,3-1.34,3-3V11.7c0-0.69,0.56-1.25,1.25-1.25h20.03c1.49,0,2.75-1.09,2.97-2.56c0.01-0.06,0.06-0.16,0.17-0.16 H75.88 M75.88,4.73h-16.9c-1.6,0-2.91,1.18-3.14,2.72H35.81c-2.35,0-4.25,1.9-4.25,4.25v5.01h-3.45H26.4h-5.09L5.54,50.98 l6.8,73.28h103.39l6.8-73.28L106.76,16.7h-5.78h-1.01h-3.3V11.7c0-2.35-1.9-4.25-4.25-4.25h-13.4 C78.79,5.91,77.48,4.73,75.88,4.73L75.88,4.73z" style="fill:#EEEEEE;"/>
      </g>
      <linearGradient id="SVGID_4_" gradientUnits="userSpaceOnUse" x1="63.8307" x2="63.8307" y1="69.4646" y2="90.043">
        <stop offset="0" style="stop-color:#FAFAFA"/>
        <stop offset="0.2634" style="stop-color:#EFEFEF"/>
        <stop offset="0.7258" style="stop-color:#D2D2D2"/>
        <stop offset="1" style="stop-color:#BDBDBD"/>
      </linearGradient>
      <polygon points="87.18,90.9 40.48,90.9 39.42,69.15 88.24,69.15 " style="fill:url(#SVGID_4_);stroke:#BDBDBD;stroke-width:3;stroke-miterlimit:10;"/>
    </g>
  </g>
  <g id="Layer_2" style="display:none;">
    <g style="display:inline;">
      <g style="opacity:0.6;">
        <circle cx="64" cy="64" r="28" style="opacity:0.61;fill:none;stroke:#000000;stroke-width:0.2625;stroke-miterlimit:10;"/>
        <line style="opacity:0.61;fill:none;stroke:#000000;stroke-width:0.25;stroke-miterlimit:10;" x1="84" x2="84" y1="0" y2="128"/>
        <line style="opacity:0.61;fill:none;stroke:#000000;stroke-width:0.25;stroke-miterlimit:10;" x1="44" x2="44" y1="0" y2="128"/>
        <line style="opacity:0.61;fill:none;stroke:#000000;stroke-width:0.25;stroke-miterlimit:10;" x1="64" x2="64" y1="0" y2="128"/>
        <line style="opacity:0.61;fill:none;stroke:#000000;stroke-width:0.25;stroke-miterlimit:10;" x1="128" x2="0" y1="64" y2="64"/>
        <line style="opacity:0.61;fill:none;stroke:#000000;stroke-width:0.25;stroke-miterlimit:10;" x1="128" x2="0" y1="44" y2="44"/>
        <line style="opacity:0.61;fill:none;stroke:#000000;stroke-width:0.25;stroke-miterlimit:10;" x1="128" x2="0" y1="83.75" y2="83.75"/>
        <line style="opacity:0.61;fill:none;stroke:#000000;stroke-width:0.25;stroke-miterlimit:10;" x1="128" x2="0" y1="128" y2="0"/>
        <line style="opacity:0.61;fill:none;stroke:#000000;stroke-width:0.25;stroke-miterlimit:10;" x1="0" x2="128" y1="128" y2="0"/>
        <g style="opacity:0.61;">
          <path d="M64,4.26c32.94,0,59.74,26.8,59.74,59.74S96.94,123.74,64,123.74S4.26,96.94,4.26,64S31.06,4.26,64,4.26 M64,4 C30.86,4,4,30.86,4,64s26.86,60,60,60s60-26.86,60-60S97.14,4,64,4L64,4z"/>
        </g>
        <path d="M107.97,115.97H20.03 c-4.42,0-8.03-3.61-8.03-8.03V20.03c0-4.42,3.61-8.03,8.03-8.03h87.94c4.42,0,8.03,3.61,8.03,8.03v87.91 C116,112.36,112.39,115.97,107.97,115.97z" style="opacity:0.61;fill:none;stroke:#000000;stroke-width:0.2578;stroke-miterlimit:10;"/>
        <path d="M100,124H28c-4.4,0-8-3.6-8-8 V12c0-4.4,3.6-8,8-8h72c4.4,0,8,3.6,8,8v104C108,120.4,104.4,124,100,124z" style="opacity:0.61;fill:none;stroke:#000000;stroke-width:0.2628;stroke-miterlimit:10;"/>
        <path d="M113.77,108H14.23 C8.6,108,4,103.4,4,97.77V30.28c0-5.63,4.6-10.23,10.23-10.23h99.54c5.63,0,10.23,4.6,10.23,10.23v67.48 C124,103.4,119.4,108,113.77,108z" style="opacity:0.61;fill:none;stroke:#000000;stroke-width:0.2627;stroke-miterlimit:10;"/>
      </g>
      <g>
        <g style="opacity:0.2;">
          <defs>
            <rect id="SVGID_2_" height="128" style="opacity:0.2;" width="128" x="0" y="0"/>
          </defs>
          <clipPath id="SVGID_5_">
            <use style="overflow:visible;" xlink:href="#SVGID_2_"/>
          </clipPath>
          <g style="clip-path:url(#SVGID_5_);">
            <g>
              <line style="fill:none;stroke:#000000;stroke-width:0.25;stroke-miterlimit:10;" x1="-28" x2="-28" y1="160" y2="-32"/>
              <line style="fill:none;stroke:#000000;stroke-width:0.25;stroke-miterlimit:10;" x1="-24" x2="-24" y1="160" y2="-32"/>
              <line style="fill:none;stroke:#000000;stroke-width:0.25;stroke-miterlimit:10;" x1="-20" x2="-20" y1="160" y2="-32"/>
              <line style="fill:none;stroke:#000000;stroke-width:0.25;stroke-miterlimit:10;" x1="-16" x2="-16" y1="160" y2="-32"/>
              <line style="fill:none;stroke:#000000;stroke-width:0.25;stroke-miterlimit:10;" x1="-12" x2="-12" y1="160" y2="-32"/>
              <line style="fill:none;stroke:#000000;stroke-width:0.25;stroke-miterlimit:10;" x1="-8" x2="-8" y1="160" y2="-32"/>
              <line style="fill:none;stroke:#000000;stroke-width:0.25;stroke-miterlimit:10;" x1="-4" x2="-4" y1="160" y2="-32"/>
              <line style="fill:none;stroke:#000000;stroke-width:0.25;stroke-miterlimit:10;" x1="0" x2="0" y1="160" y2="-32"/>
              <line style="fill:none;stroke:#000000;stroke-width:0.25;stroke-miterlimit:10;" x1="4" x2="4" y1="160" y2="-32"/>
              <line style="fill:none;stroke:#000000;stroke-width:0.25;stroke-miterlimit:10;" x1="8" x2="8" y1="160" y2="-32"/>
              <line style="fill:none;stroke:#000000;stroke-width:0.25;stroke-miterlimit:10;" x1="12" x2="12" y1="160" y2="-32"/>
              <line style="fill:none;stroke:#000000;stroke-width:0.25;stroke-miterlimit:10;" x1="16" x2="16" y1="160" y2="-32"/>
              <line style="fill:none;stroke:#000000;stroke-width:0.25;stroke-miterlimit:10;" x1="20" x2="20" y1="160" y2="-32"/>
              <line style="fill:none;stroke:#000000;stroke-width:0.25;stroke-miterlimit:10;" x1="24" x2="24" y1="160" y2="-32"/>
              <line style="fill:none;stroke:#000000;stroke-width:0.25;stroke-miterlimit:10;" x1="28" x2="28" y1="160" y2="-32"/>
              <line style="fill:none;stroke:#000000;stroke-width:0.25;stroke-miterlimit:10;" x1="32" x2="32" y1="160" y2="-32"/>
              <line style="fill:none;stroke:#000000;stroke-width:0.25;stroke-miterlimit:10;" x1="36" x2="36" y1="160" y2="-32"/>
              <line style="fill:none;stroke:#000000;stroke-width:0.25;stroke-miterlimit:10;" x1="40" x2="40" y1="160" y2="-32"/>
              <line style="fill:none;stroke:#000000;stroke-width:0.25;stroke-miterlimit:10;" x1="44" x2="44" y1="160" y2="-32"/>
              <line style="fill:none;stroke:#000000;stroke-width:0.25;stroke-miterlimit:10;" x1="48" x2="48" y1="160" y2="-32"/>
              <line style="fill:none;stroke:#000000;stroke-width:0.25;stroke-miterlimit:10;" x1="52" x2="52" y1="160" y2="-32"/>
              <line style="fill:none;stroke:#000000;stroke-width:0.25;stroke-miterlimit:10;" x1="56" x2="56" y1="160" y2="-32"/>
              <line style="fill:none;stroke:#000000;stroke-width:0.25;stroke-miterlimit:10;" x1="60" x2="60" y1="160" y2="-32"/>
              <line style="fill:none;stroke:#000000;stroke-width:0.25;stroke-miterlimit:10;" x1="64" x2="64" y1="160" y2="-32"/>
              <line style="fill:none;stroke:#000000;stroke-width:0.25;stroke-miterlimit:10;" x1="68" x2="68" y1="160" y2="-32"/>
              <line style="fill:none;stroke:#000000;stroke-width:0.25;stroke-miterlimit:10;" x1="72" x2="72" y1="160" y2="-32"/>
              <line style="fill:none;stroke:#000000;stroke-width:0.25;stroke-miterlimit:10;" x1="76" x2="76" y1="160" y2="-32"/>
              <line style="fill:none;stroke:#000000;stroke-width:0.25;stroke-miterlimit:10;" x1="80" x2="80" y1="160" y2="-32"/>
              <line style="fill:none;stroke:#000000;stroke-width:0.25;stroke-miterlimit:10;" x1="84" x2="84" y1="160" y2="-32"/>
              <line style="fill:none;stroke:#000000;stroke-width:0.25;stroke-miterlimit:10;" x1="88" x2="88" y1="160" y2="-32"/>
              <line style="fill:none;stroke:#000000;stroke-width:0.25;stroke-miterlimit:10;" x1="92" x2="92" y1="160" y2="-32"/>
              <line style="fill:none;stroke:#000000;stroke-width:0.25;stroke-miterlimit:10;" x1="96" x2="96" y1="160" y2="-32"/>
              <line style="fill:none;stroke:#000000;stroke-width:0.25;stroke-miterlimit:10;" x1="100" x2="100" y1="160" y2="-32"/>
              <line style="fill:none;stroke:#000000;stroke-width:0.25;stroke-miterlimit:10;" x1="104" x2="104" y1="160" y2="-32"/>
              <line style="fill:none;stroke:#000000;stroke-width:0.25;stroke-miterlimit:10;" x1="108" x2="108" y1="160" y2="-32"/>
              <line style="fill:none;stroke:#000000;stroke-width:0.25;stroke-miterlimit:10;" x1="112" x2="112" y1="160" y2="-32"/>
              <line style="fill:none;stroke:#000000;stroke-width:0.25;stroke-miterlimit:10;" x1="116" x2="116" y1="160" y2="-32"/>
              <line style="fill:none;stroke:#000000;stroke-width:0.25;stroke-miterlimit:10;" x1="120" x2="120" y1="160" y2="-32"/>
              <line style="fill:none;stroke:#000000;stroke-width:0.25;stroke-miterlimit:10;" x1="124" x2="124" y1="160" y2="-32"/>
              <line style="fill:none;stroke:#000000;stroke-width:0.25;stroke-miterlimit:10;" x1="128" x2="128" y1="160" y2="-32"/>
              <line style="fill:none;stroke:#000000;stroke-width:0.25;stroke-miterlimit:10;" x1="132" x2="132" y1="160" y2="-32"/>
              <line style="fill:none;stroke:#000000;stroke-width:0.25;stroke-miterlimit:10;" x1="136" x2="136" y1="160" y2="-32"/>
              <line style="fill:none;stroke:#000000;stroke-width:0.25;stroke-miterlimit:10;" x1="137" x2="137" y1="166.05" y2="-25.95"/>
              <line style="fill:none;stroke:#000000;stroke-width:0.25;stroke-miterlimit:10;" x1="144" x2="144" y1="160" y2="-32"/>
              <line style="fill:none;stroke:#000000;stroke-width:0.25;stroke-miterlimit:10;" x1="148" x2="148" y1="160" y2="-32"/>
              <line style="fill:none;stroke:#000000;stroke-width:0.25;stroke-miterlimit:10;" x1="152" x2="152" y1="160" y2="-32"/>
              <line style="fill:none;stroke:#000000;stroke-width:0.25;stroke-miterlimit:10;" x1="156" x2="156" y1="160" y2="-32"/>
            </g>
            <g>
              <line style="fill:none;stroke:#000000;stroke-width:0.25;stroke-miterlimit:10;" x1="-32" x2="160" y1="-28" y2="-28"/>
              <line style="fill:none;stroke:#000000;stroke-width:0.25;stroke-miterlimit:10;" x1="-32" x2="160" y1="-24" y2="-24"/>
              <line style="fill:none;stroke:#000000;stroke-width:0.25;stroke-miterlimit:10;" x1="-32" x2="160" y1="-20" y2="-20"/>
              <line style="fill:none;stroke:#000000;stroke-width:0.25;stroke-miterlimit:10;" x1="-32" x2="160" y1="-16" y2="-16"/>
              <line style="fill:none;stroke:#000000;stroke-width:0.25;stroke-miterlimit:10;" x1="-32" x2="160" y1="-12" y2="-12"/>
              <line style="fill:none;stroke:#000000;stroke-width:0.25;stroke-miterlimit:10;" x1="-32" x2="160" y1="-8" y2="-8"/>
              <line style="fill:none;stroke:#000000;stroke-width:0.25;stroke-miterlimit:10;" x1="-32" x2="160" y1="-4" y2="-4"/>
              <line style="fill:none;stroke:#000000;stroke-width:0.25;stroke-miterlimit:10;" x1="-32" x2="160" y1="0" y2="0"/>
              <line style="fill:none;stroke:#000000;stroke-width:0.25;stroke-miterlimit:10;" x1="-32" x2="160" y1="4" y2="4"/>
              <line style="fill:none;stroke:#000000;stroke-width:0.25;stroke-miterlimit:10;" x1="-32" x2="160" y1="8" y2="8"/>
              <line style="fill:none;stroke:#000000;stroke-width:0.25;stroke-miterlimit:10;" x1="-32" x2="160" y1="12" y2="12"/>
              <line style="fill:none;stroke:#000000;stroke-width:0.25;stroke-miterlimit:10;" x1="-32" x2="160" y1="16" y2="16"/>
              <line style="fill:none;stroke:#000000;stroke-width:0.25;stroke-miterlimit:10;" x1="-32" x2="160" y1="20" y2="20"/>
              <line style="fill:none;stroke:#000000;stroke-width:0.25;stroke-miterlimit:10;" x1="-32" x2="160" y1="24" y2="24"/>
              <line style="fill:none;stroke:#000000;stroke-width:0.25;stroke-miterlimit:10;" x1="-32" x2="160" y1="28" y2="28"/>
              <line style="fill:none;stroke:#000000;stroke-width:0.25;stroke-miterlimit:10;" x1="-32" x2="160" y1="32" y2="32"/>
              <line style="fill:none;stroke:#000000;stroke-width:0.25;stroke-miterlimit:10;" x1="-32" x2="160" y1="36" y2="36"/>
              <line style="fill:none;stroke:#000000;stroke-width:0.25;stroke-miterlimit:10;" x1="-32" x2="160" y1="40" y2="40"/>
              <line style="fill:none;stroke:#000000;stroke-width:0.25;stroke-miterlimit:10;" x1="-32" x2="160" y1="44" y2="44"/>
              <line style="fill:none;stroke:#000000;stroke-width:0.25;stroke-miterlimit:10;" x1="-32" x2="160" y1="48" y2="48"/>
              <line style="fill:none;stroke:#000000;stroke-width:0.25;stroke-miterlimit:10;" x1="-32" x2="160" y1="52" y2="52"/>
              <line style="fill:none;stroke:#000000;stroke-width:0.25;stroke-miterlimit:10;" x1="-32" x2="160" y1="56" y2="56"/>
              <line style="fill:none;stroke:#000000;stroke-width:0.25;stroke-miterlimit:10;" x1="-32" x2="160" y1="60" y2="60"/>
              <line style="fill:none;stroke:#000000;stroke-width:0.25;stroke-miterlimit:10;" x1="-32" x2="160" y1="64" y2="64"/>
              <line style="fill:none;stroke:#000000;stroke-width:0.25;stroke-miterlimit:10;" x1="-32" x2="160" y1="68" y2="68"/>
              <line style="fill:none;stroke:#000000;stroke-width:0.25;stroke-miterlimit:10;" x1="-32" x2="160" y1="72" y2="72"/>
              <line style="fill:none;stroke:#000000;stroke-width:0.25;stroke-miterlimit:10;" x1="-32" x2="160" y1="76" y2="76"/>
              <line style="fill:none;stroke:#000000;stroke-width:0.25;stroke-miterlimit:10;" x1="-32" x2="160" y1="80" y2="80"/>
              <line style="fill:none;stroke:#000000;stroke-width:0.25;stroke-miterlimit:10;" x1="-32" x2="160" y1="84" y2="84"/>
              <line style="fill:none;stroke:#000000;stroke-width:0.25;stroke-miterlimit:10;" x1="-32" x2="160" y1="88" y2="88"/>
              <line style="fill:none;stroke:#000000;stroke-width:0.25;stroke-miterlimit:10;" x1="-32" x2="160" y1="92" y2="92"/>
              <line style="fill:none;stroke:#000000;stroke-width:0.25;stroke-miterlimit:10;" x1="-32" x2="160" y1="96" y2="96"/>
              <line style="fill:none;stroke:#000000;stroke-width:0.25;stroke-miterlimit:10;" x1="-32" x2="160" y1="100" y2="100"/>
              <line style="fill:none;stroke:#000000;stroke-width:0.25;stroke-miterlimit:10;" x1="-32" x2="160" y1="104" y2="104"/>
              <line style="fill:none;stroke:#000000;stroke-width:0.25;stroke-miterlimit:10;" x1="-32" x2="160" y1="108" y2="108"/>
              <line style="fill:none;stroke:#000000;stroke-width:0.25;stroke-miterlimit:10;" x1="-32" x2="160" y1="112" y2="112"/>
              <line style="fill:none;stroke:#000000;stroke-width:0.25;stroke-miterlimit:10;" x1="-32" x2="160" y1="116" y2="116"/>
              <line style="fill:none;stroke:#000000;stroke-width:0.25;stroke-miterlimit:10;" x1="-32" x2="160" y1="120" y2="120"/>
              <line style="fill:none;stroke:#000000;stroke-width:0.25;stroke-miterlimit:10;" x1="-32" x2="160" y1="124" y2="124"/>
              <line style="fill:none;stroke:#000000;stroke-width:0.25;stroke-miterlimit:10;" x1="-32" x2="160" y1="128" y2="128"/>
              <line style="fill:none;stroke:#000000;stroke-width:0.25;stroke-miterlimit:10;" x1="-32" x2="160" y1="132" y2="132"/>
              <line style="fill:none;stroke:#000000;stroke-width:0.25;stroke-miterlimit:10;" x1="-32" x2="160" y1="136" y2="136"/>
              <line style="fill:none;stroke:#000000;stroke-width:0.25;stroke-miterlimit:10;" x1="-32" x2="160" y1="140" y2="140"/>
              <line style="fill:none;stroke:#000000;stroke-width:0.25;stroke-miterlimit:10;" x1="-32" x2="160" y1="144" y2="144"/>
              <line style="fill:none;stroke:#000000;stroke-width:0.25;stroke-miterlimit:10;" x1="-32" x2="160" y1="148" y2="148"/>
              <line style="fill:none;stroke:#000000;stroke-width:0.25;stroke-miterlimit:10;" x1="-32" x2="160" y1="152" y2="152"/>
              <line style="fill:none;stroke:#000000;stroke-width:0.25;stroke-miterlimit:10;" x1="-32" x2="160" y1="156" y2="156"/>
            </g>
            <path d="M159.75-31.75v191.5h-191.5v-191.5H159.75 M160-32H-32v192h192V-32L160-32z"/>
          </g>
        </g>
        <g>
          <rect height="128" style="opacity:0.3;fill:#F44336;" width="4" x="0" y="0"/>
          <rect height="128" style="opacity:0.3;fill:#F44336;" width="4" x="124" y="0"/>
          <rect height="120" style="opacity:0.3;fill:#F44336;" transform="matrix(-1.836970e-16 1 -1 -1.836970e-16 66 -62)" width="4" x="62" y="-58"/>
          <rect height="120" style="opacity:0.3;fill:#F44336;" transform="matrix(-1.836970e-16 1 -1 -1.836970e-16 190 62)" width="4" x="62" y="66"/>
        </g>
      </g>
    </g>
  </g>
</svg>
